svgs/buttons/attach.svg

<?xml version="1.0" encoding="utf-8"?>
<!-- Generator: Adobe Illustrator 16.0.0, SVG Export Plug-In . SVG Version: 6.00 Build 0)  -->
<!DOCTYPE svg PUBLIC "-//W3C//DTD SVG 1.1//EN" "http://www.w3.org/Graphics/SVG/1.1/DTD/svg11.dtd">
<svg version="1.1" id="Layer_1" xmlns="http://www.w3.org/2000/svg" xmlns:xlink="http://www.w3.org/1999/xlink" x="0px" y="0px"
	 width="13.736px" height="13.708px" viewBox="0 0 13.736 13.708" enable-background="new 0 0 13.736 13.708" xml:space="preserve">
<g>
	<path fill="#FFFFFF" d="M13.629,2.874c-0.062-0.255-0.149-0.494-0.256-0.716c-0.188-0.388-0.438-0.719-0.718-0.992
		c-0.21-0.206-0.438-0.382-0.672-0.527c-0.353-0.221-0.72-0.377-1.078-0.481c-0.179-0.053-0.355-0.091-0.528-0.118
		C10.204,0.014,10.036,0,9.872,0C9.446,0,9.068,0.061,8.744,0.156C8.501,0.228,8.29,0.317,8.107,0.413
		C7.835,0.558,7.632,0.713,7.49,0.84C7.396,0.926,7.33,0.996,7.291,1.043L1.279,6.974L1.278,6.977
		C1.12,7.134,0.962,7.315,0.812,7.523C0.587,7.834,0.383,8.206,0.235,8.636C0.089,9.066,0,9.556,0,10.099
		c0.001,0.216,0.028,0.432,0.079,0.645c0.088,0.371,0.246,0.734,0.461,1.075c0.161,0.256,0.354,0.5,0.578,0.724
		c0.336,0.336,0.743,0.626,1.211,0.834c0.233,0.104,0.482,0.187,0.743,0.244c0.262,0.057,0.536,0.088,0.82,0.088
		c0.27,0,0.529-0.042,0.774-0.108c0.214-0.06,0.418-0.138,0.609-0.229c0.338-0.16,0.642-0.357,0.914-0.562
		c0.406-0.306,0.738-0.629,0.976-0.878c0.235-0.25,0.374-0.426,0.384-0.439L6.44,10.622l0,0l0.51,0.399l-0.51-0.4l0.453,0.356
		l-0.452-0.356H6.44l0,0v0.001l0,0c-0.002,0.004-0.093,0.116-0.246,0.282c-0.116,0.126-0.269,0.281-0.447,0.441
		c-0.133,0.121-0.28,0.245-0.437,0.358c-0.233,0.175-0.485,0.328-0.73,0.433c-0.123,0.054-0.243,0.094-0.359,0.121
		c-0.115,0.027-0.225,0.04-0.328,0.04c-0.185,0-0.36-0.021-0.527-0.058c-0.293-0.063-0.561-0.182-0.803-0.336
		c-0.181-0.115-0.346-0.253-0.49-0.403c-0.217-0.227-0.387-0.481-0.499-0.73c-0.056-0.125-0.098-0.246-0.124-0.36
		S1.41,10.19,1.41,10.099c0-0.26,0.028-0.493,0.075-0.705C1.557,9.077,1.671,8.806,1.81,8.571c0.138-0.234,0.302-0.433,0.466-0.597
		l6.065-5.986l0.023-0.03c0.009-0.01,0.042-0.048,0.104-0.1c0.096-0.08,0.252-0.191,0.48-0.282C9.063,1.53,9.195,1.489,9.348,1.459
		s0.326-0.048,0.524-0.048c0.1,0,0.219,0.01,0.348,0.032c0.226,0.038,0.48,0.116,0.727,0.232c0.186,0.089,0.366,0.198,0.53,0.329
		c0.124,0.097,0.238,0.207,0.34,0.327c0.152,0.182,0.277,0.388,0.366,0.629c0.09,0.241,0.143,0.518,0.144,0.848
		c0,0.151-0.02,0.297-0.053,0.436c-0.053,0.21-0.139,0.407-0.248,0.59s-0.241,0.348-0.376,0.486l-0.001,0.002L8.609,8.496
		C8.604,8.5,8.586,8.519,8.553,8.542C8.501,8.579,8.418,8.63,8.306,8.671C8.194,8.712,8.052,8.744,7.869,8.744
		c-0.051,0-0.098-0.006-0.141-0.016c-0.075-0.017-0.14-0.047-0.202-0.09c-0.046-0.03-0.089-0.071-0.13-0.118
		C7.336,8.449,7.284,8.359,7.248,8.257C7.213,8.155,7.192,8.043,7.192,7.926c0-0.111,0.021-0.216,0.055-0.314
		c0.024-0.075,0.058-0.145,0.094-0.207C7.396,7.31,7.455,7.231,7.498,7.183C7.52,7.156,7.537,7.14,7.546,7.13
		C7.55,7.127,7.553,7.125,7.554,7.123l0.008-0.008l2.355-2.326L8.925,3.786L6.593,6.09c-0.025,0.024-0.072,0.07-0.13,0.134
		c-0.115,0.128-0.278,0.334-0.42,0.618C5.973,6.983,5.907,7.146,5.86,7.328C5.813,7.51,5.781,7.711,5.781,7.926
		c0.001,0.281,0.05,0.557,0.143,0.814c0.069,0.193,0.164,0.376,0.282,0.545c0.09,0.126,0.193,0.243,0.31,0.349
		c0.176,0.158,0.38,0.289,0.609,0.381c0.229,0.091,0.482,0.141,0.744,0.141c0.273,0,0.521-0.04,0.735-0.1
		c0.161-0.045,0.304-0.103,0.427-0.162C9.217,9.803,9.359,9.704,9.46,9.623c0.09-0.07,0.146-0.128,0.174-0.156l3.03-3.166
		c0.268-0.277,0.53-0.623,0.732-1.041c0.101-0.209,0.186-0.436,0.245-0.679c0.061-0.242,0.095-0.503,0.095-0.772
		C13.736,3.479,13.699,3.167,13.629,2.874z M8.362,1.96L8.362,1.96L8.362,1.96L8.362,1.96z"/>
	<polygon fill="#FFFFFF" points="12.666,6.299 12.664,6.301 12.664,6.301 	"/>
</g>
</svg>

<?xml version="1.0" encoding="UTF-8" standalone="no"?>
<!-- Generator: Adobe Illustrator 16.0.0, SVG Export Plug-In . SVG Version: 6.00 Build 0)  -->

<svg
   xmlns:dc="http://purl.org/dc/elements/1.1/"
   xmlns:cc="http://creativecommons.org/ns#"
   xmlns:rdf="http://www.w3.org/1999/02/22-rdf-syntax-ns#"
   xmlns:svg="http://www.w3.org/2000/svg"
   xmlns="http://www.w3.org/2000/svg"
   xmlns:sodipodi="http://sodipodi.sourceforge.net/DTD/sodipodi-0.dtd"
   xmlns:inkscape="http://www.inkscape.org/namespaces/inkscape"
   version="1.1"
   id="Layer_1"
   x="0px"
   y="0px"
   width="14"
   height="14"
   viewBox="0 0 14 14"
   enable-background="new 0 0 13.736 13.708"
   xml:space="preserve"
   inkscape:version="0.48.4 r9939"
   sodipodi:docname="attach.svg"><metadata
     id="metadata6160"><rdf:RDF><cc:Work
         rdf:about=""><dc:format>image/svg+xml</dc:format><dc:type
           rdf:resource="http://purl.org/dc/dcmitype/StillImage" /></cc:Work></rdf:RDF></metadata><defs
     id="defs6158" /><sodipodi:namedview
     pagecolor="#ffffff"
     bordercolor="#666666"
     borderopacity="1"
     objecttolerance="10"
     gridtolerance="10"
     guidetolerance="10"
     inkscape:pageopacity="0"
     inkscape:pageshadow="2"
     inkscape:window-width="1360"
     inkscape:window-height="747"
     id="namedview6156"
     showgrid="false"
     inkscape:snap-object-midpoints="true"
     inkscape:zoom="17.216224"
     inkscape:cx="6.868"
     inkscape:cy="6.8540001"
     inkscape:window-x="0"
     inkscape:window-y="15"
     inkscape:window-maximized="0"
     inkscape:current-layer="Layer_1" /><g
     id="g6150"
     transform="translate(0.13200036,0.1455)"><path
       d="M 13.629,2.874 C 13.567,2.619 13.48,2.38 13.373,2.158 13.185,1.77 12.935,1.439 12.655,1.166 12.445,0.96 12.217,0.784 11.983,0.639 11.63,0.418 11.263,0.262 10.905,0.158 10.726,0.105 10.55,0.067 10.377,0.04 10.204,0.014 10.036,0 9.872,0 9.446,0 9.068,0.061 8.744,0.156 8.501,0.228 8.29,0.317 8.107,0.413 7.835,0.558 7.632,0.713 7.49,0.84 7.396,0.926 7.33,0.996 7.291,1.043 L 1.279,6.974 1.278,6.977 C 1.12,7.134 0.962,7.315 0.812,7.523 0.587,7.834 0.383,8.206 0.235,8.636 0.089,9.066 0,9.556 0,10.099 c 0.001,0.216 0.028,0.432 0.079,0.645 0.088,0.371 0.246,0.734 0.461,1.075 0.161,0.256 0.354,0.5 0.578,0.724 0.336,0.336 0.743,0.626 1.211,0.834 0.233,0.104 0.482,0.187 0.743,0.244 0.262,0.057 0.536,0.088 0.82,0.088 0.27,0 0.529,-0.042 0.774,-0.108 0.214,-0.06 0.418,-0.138 0.609,-0.229 0.338,-0.16 0.642,-0.357 0.914,-0.562 0.406,-0.306 0.738,-0.629 0.976,-0.878 0.235,-0.25 0.374,-0.426 0.384,-0.439 l -1.109,-0.871 0,0 0.51,0.399 -0.51,-0.4 0.453,0.356 -0.452,-0.356 H 6.44 l 0,0 v 10e-4 l 0,0 C 6.438,10.626 6.347,10.738 6.194,10.904 6.078,11.03 5.925,11.185 5.747,11.345 5.614,11.466 5.467,11.59 5.31,11.703 5.077,11.878 4.825,12.031 4.58,12.136 4.457,12.19 4.337,12.23 4.221,12.257 c -0.115,0.027 -0.225,0.04 -0.328,0.04 -0.185,0 -0.36,-0.021 -0.527,-0.058 C 3.073,12.176 2.805,12.057 2.563,11.903 2.382,11.788 2.217,11.65 2.073,11.5 1.856,11.273 1.686,11.019 1.574,10.77 1.518,10.645 1.476,10.524 1.45,10.41 1.424,10.296 1.41,10.19 1.41,10.099 1.41,9.839 1.438,9.606 1.485,9.394 1.557,9.077 1.671,8.806 1.81,8.571 1.948,8.337 2.112,8.138 2.276,7.974 L 8.341,1.988 8.364,1.958 C 8.373,1.948 8.406,1.91 8.468,1.858 8.564,1.778 8.72,1.667 8.948,1.576 9.063,1.53 9.195,1.489 9.348,1.459 9.501,1.429 9.674,1.411 9.872,1.411 c 0.1,0 0.219,0.01 0.348,0.032 0.226,0.038 0.48,0.116 0.727,0.232 0.186,0.089 0.366,0.198 0.53,0.329 0.124,0.097 0.238,0.207 0.34,0.327 0.152,0.182 0.277,0.388 0.366,0.629 0.09,0.241 0.143,0.518 0.144,0.848 0,0.151 -0.02,0.297 -0.053,0.436 -0.053,0.21 -0.139,0.407 -0.248,0.59 C 11.917,5.017 11.785,5.182 11.65,5.32 L 11.649,5.322 8.609,8.496 C 8.604,8.5 8.586,8.519 8.553,8.542 8.501,8.579 8.418,8.63 8.306,8.671 8.194,8.712 8.052,8.744 7.869,8.744 7.818,8.744 7.771,8.738 7.728,8.728 7.653,8.711 7.588,8.681 7.526,8.638 7.48,8.608 7.437,8.567 7.396,8.52 7.336,8.449 7.284,8.359 7.248,8.257 7.213,8.155 7.192,8.043 7.192,7.926 7.192,7.815 7.213,7.71 7.247,7.612 7.271,7.537 7.305,7.467 7.341,7.405 7.396,7.31 7.455,7.231 7.498,7.183 7.52,7.156 7.537,7.14 7.546,7.13 7.55,7.127 7.553,7.125 7.554,7.123 L 7.562,7.115 9.917,4.789 8.925,3.786 6.593,6.09 C 6.568,6.114 6.521,6.16 6.463,6.224 6.348,6.352 6.185,6.558 6.043,6.842 5.973,6.983 5.907,7.146 5.86,7.328 5.813,7.51 5.781,7.711 5.781,7.926 c 0.001,0.281 0.05,0.557 0.143,0.814 0.069,0.193 0.164,0.376 0.282,0.545 0.09,0.126 0.193,0.243 0.31,0.349 0.176,0.158 0.38,0.289 0.609,0.381 0.229,0.091 0.482,0.141 0.744,0.141 0.273,0 0.521,-0.04 0.735,-0.1 C 8.765,10.011 8.908,9.953 9.031,9.894 9.217,9.803 9.359,9.704 9.46,9.623 9.55,9.553 9.606,9.495 9.634,9.467 l 3.03,-3.166 c 0.268,-0.277 0.53,-0.623 0.732,-1.041 0.101,-0.209 0.186,-0.436 0.245,-0.679 0.061,-0.242 0.095,-0.503 0.095,-0.772 0,-0.33 -0.037,-0.642 -0.107,-0.935 z M 8.362,1.96 l 0,0 0,0 0,0 z"
       id="path6152"
       inkscape:connector-curvature="0"
       style="fill:#ffffff" /><polygon
       points="12.666,6.299 12.664,6.301 12.664,6.301 "
       id="polygon6154"
       style="fill:#ffffff" /></g></svg>
